packages/core/src/svgs/tokens/mono/BDT.svg

<svg width="24" height="24" viewBox="0 0 24 24" fill="none" xmlns="http://www.w3.org/2000/svg">
<path d="M11.5236 18.977C11.5236 20.6467 10.1382 22 8.42841 22C6.71932 22 5.33325 20.6467 5.33325 18.977C5.33325 17.3073 6.71932 15.9533 8.42841 15.9533C10.1375 15.9533 11.5236 17.3073 11.5236 18.977ZM18.6666 18.977C18.6666 20.6467 17.2811 22 15.5714 22C13.8623 22 12.4763 20.6467 12.4763 18.977C12.4763 17.3073 13.8617 15.9533 15.5714 15.9533C17.2806 15.9533 18.6666 17.3073 18.6666 18.977ZM10.095 7.57152C10.9544 7.03395 11.5236 6.09334 11.5236 5.02304C11.5236 3.35333 10.1382 2 8.42841 2C6.71932 2 5.33325 3.35333 5.33325 5.02304C5.33325 6.09334 5.90295 7.03395 6.76175 7.57152V7.58122C7.05084 7.79334 7.2381 8.13091 7.2381 8.51153C7.2381 8.89213 7.05084 9.2297 6.76175 9.44182C6.32626 9.71212 5.96667 10.0887 5.71678 10.5363C5.46689 10.9837 5.33492 11.4874 5.33325 12C5.33325 13.6697 6.71932 15.0231 8.42841 15.0231C10.1375 15.0231 11.5236 13.6697 11.5236 12C11.5236 10.9297 10.9538 9.97941 10.095 9.44243C9.94782 9.33583 9.82804 9.19593 9.74517 9.03414C9.66245 8.87234 9.61903 8.69326 9.61875 8.51153C9.61875 8.13091 9.80655 7.79334 10.095 7.58122V7.57152Z" fill="white"/>
<path d="M12.9629 13.6277C13.2477 14.0585 13.6353 14.4116 14.0907 14.6552C14.5462 14.8987 15.055 15.0252 15.5714 15.0229C17.2806 15.0229 18.6666 13.6696 18.6666 11.9999C18.6666 10.3302 17.2811 8.97684 15.5714 8.97684C15.055 8.9746 14.5462 9.10095 14.0907 9.34453C13.6353 9.5881 13.2477 9.9412 12.9629 10.3719H12.9526C12.8402 10.5173 12.6956 10.6348 12.5305 10.7154C12.3653 10.796 12.1837 10.8376 11.9999 10.8368C11.816 10.8376 11.6346 10.796 11.4693 10.7154C11.3041 10.6348 11.1597 10.5173 11.0472 10.3719C10.4975 9.53259 9.52414 8.97684 8.42902 8.97684C6.71871 8.97684 5.33325 10.3302 5.33325 11.9999C5.33325 13.6696 6.71932 15.0229 8.42841 15.0229C9.52414 15.0229 10.4975 14.4672 11.0477 13.6277C11.1603 13.4825 11.3045 13.365 11.4697 13.2844C11.6347 13.2038 11.8162 13.1622 11.9999 13.1629C12.3896 13.1629 12.7351 13.3453 12.9526 13.6277H12.9629ZM12.9629 20.6047C13.2477 21.0356 13.6353 21.3887 14.0907 21.6322C14.5462 21.8757 15.055 22.0021 15.5714 21.9999C17.2811 21.9999 18.6666 20.6465 18.6666 18.9768C18.6666 17.3072 17.2806 15.9531 15.5714 15.9531C15.055 15.951 14.546 16.0774 14.0907 16.3211C13.6353 16.5649 13.2477 16.918 12.9629 17.3489H12.9526C12.8402 17.4943 12.6956 17.6119 12.5305 17.6925C12.3653 17.7731 12.1837 17.8146 11.9999 17.8139C11.816 17.8146 11.6346 17.7731 11.4693 17.6925C11.3041 17.6119 11.1597 17.4943 11.0472 17.3489C10.4975 16.5096 9.52358 15.9531 8.42841 15.9531C6.71932 15.9531 5.33325 17.3072 5.33325 18.9768C5.33325 20.6465 6.71932 21.9999 8.42841 21.9999C9.52414 21.9999 10.4975 21.4435 11.0477 20.6047C11.1602 20.4593 11.3045 20.3416 11.4696 20.261C11.6347 20.1803 11.8162 20.1386 11.9999 20.1393C12.3896 20.1393 12.7351 20.3223 12.9526 20.6047H12.9629Z" fill="white"/>
<path d="M17.2381 14.5477C18.0969 14.0108 18.6666 13.0701 18.6666 11.9999C18.6666 10.3302 17.2811 8.97681 15.5714 8.97681C13.8623 8.97681 12.4763 10.3302 12.4763 11.9999C12.4763 13.0701 13.0459 14.0108 13.9047 14.5477V14.5581C14.1939 14.7702 14.3812 15.1077 14.3812 15.4883C14.3812 15.8683 14.1932 16.2065 13.9047 16.4186C13.4693 16.6889 13.1098 17.0653 12.86 17.5128C12.6101 17.9602 12.478 18.4643 12.4763 18.9768C12.4763 20.6465 13.8623 21.9998 15.5714 21.9998C17.2811 21.9998 18.6666 20.6465 18.6666 18.9768C18.6666 17.9065 18.0969 16.9556 17.2381 16.4186C17.0909 16.3122 16.9712 16.1723 16.8884 16.0107C16.8056 15.8489 16.7621 15.67 16.7617 15.4883C16.7617 15.1077 16.9489 14.7702 17.2381 14.5581V14.5477ZM10.095 14.5477C10.9544 14.0108 11.5236 13.0701 11.5236 11.9999C11.5236 10.3302 10.1387 8.97681 8.42902 8.97681C6.71871 8.97681 5.33325 10.3302 5.33325 11.9999C5.33325 13.0701 5.90295 14.0108 6.76175 14.5477V14.5581C7.05084 14.7702 7.2381 15.1077 7.2381 15.4883C7.2381 15.8683 7.05084 16.2065 6.76175 16.4186C6.32643 16.6889 5.96696 17.0652 5.71708 17.5125C5.4672 17.9598 5.33512 18.4645 5.33325 18.9768C5.33325 20.6483 6.71932 21.9998 8.42841 21.9998C10.1382 21.9998 11.5236 20.6465 11.5236 18.9768C11.5236 17.9065 10.9538 16.9556 10.095 16.4186C9.94796 16.3122 9.82818 16.1723 9.74532 16.0107C9.66259 15.8489 9.61917 15.67 9.61875 15.4883C9.61875 15.1077 9.80655 14.7702 10.095 14.5581V14.5477Z" fill="white"/>
</svg>

<svg xmlns="http://www.w3.org/2000/svg" width="24" height="24" fill="none" viewBox="0 0 24 24">
    <path fill="#fff" d="M11.524 18.977c0 1.67-1.386 3.023-3.096 3.023-1.709 0-3.095-1.353-3.095-3.023s1.386-3.024 3.095-3.024 3.096 1.354 3.096 3.024m7.143 0c0 1.67-1.386 3.023-3.096 3.023-1.709 0-3.095-1.353-3.095-3.023s1.386-3.024 3.095-3.024 3.096 1.354 3.096 3.024M10.095 7.572a3 3 0 0 0 1.429-2.549C11.524 3.353 10.138 2 8.428 2 6.72 2 5.333 3.353 5.333 5.023c0 1.07.57 2.011 1.429 2.549v.01c.289.211.476.549.476.93 0 .38-.187.718-.476.93A3.02 3.02 0 0 0 5.333 12c0 1.67 1.386 3.023 3.095 3.023S11.524 13.67 11.524 12c0-1.07-.57-2.02-1.429-2.558a1.15 1.15 0 0 1-.476-.93c0-.381.188-.719.476-.93z"/>
    <path fill="#fff" d="M12.963 13.628a3.11 3.11 0 0 0 2.608 1.395c1.71 0 3.096-1.353 3.096-3.023S17.28 8.977 15.57 8.977a3.11 3.11 0 0 0-2.608 1.395h-.01a1.2 1.2 0 0 1-.953.465 1.2 1.2 0 0 1-.953-.465A3.13 3.13 0 0 0 8.43 8.977c-1.71 0-3.096 1.353-3.096 3.023s1.386 3.023 3.095 3.023a3.13 3.13 0 0 0 2.62-1.395 1.2 1.2 0 0 1 .952-.465c.39 0 .735.182.953.465zm0 6.977A3.11 3.11 0 0 0 15.57 22c1.71 0 3.096-1.354 3.096-3.023s-1.386-3.024-3.096-3.024a3.11 3.11 0 0 0-2.608 1.396h-.01a1.2 1.2 0 0 1-.953.465 1.2 1.2 0 0 1-.953-.465 3.13 3.13 0 0 0-2.619-1.396c-1.709 0-3.095 1.354-3.095 3.024S6.72 22 8.428 22a3.13 3.13 0 0 0 2.62-1.395 1.2 1.2 0 0 1 .952-.466c.39 0 .735.183.953.466z"/>
    <path fill="#fff" d="M17.238 14.548A3 3 0 0 0 18.667 12c0-1.67-1.386-3.023-3.096-3.023-1.709 0-3.095 1.353-3.095 3.023 0 1.07.57 2.01 1.429 2.548v.01c.289.212.476.55.476.93s-.188.718-.476.93a3.02 3.02 0 0 0-1.429 2.559c0 1.67 1.386 3.023 3.095 3.023s3.096-1.354 3.096-3.023c0-1.07-.57-2.021-1.429-2.558a1.15 1.15 0 0 1-.476-.93c0-.381.187-.719.476-.93zm-7.143 0A3 3 0 0 0 11.524 12c0-1.67-1.385-3.023-3.095-3.023S5.333 10.33 5.333 12c0 1.07.57 2.01 1.429 2.548v.01c.289.212.476.55.476.93s-.187.718-.476.93a3.02 3.02 0 0 0-1.429 2.559C5.333 20.648 6.72 22 8.428 22s3.096-1.354 3.096-3.023c0-1.07-.57-2.021-1.429-2.558a1.15 1.15 0 0 1-.476-.93c0-.381.188-.719.476-.93z"/>
</svg>
